X:148
T: AUF DEM BERGE AUF DEM BERGE
N: K2254
O: Europa, Mitteleuropa, Deutschland, Bacharach am Rhein
R: Kinder - Lied, Reigen, Tanz, Nachahmungs - Spiel
M: 3/4
L: 1/8
K: C
GG | G2E2GG | G2E2
G2 | F2D2F2 | E2z2
GG | G2E2GG | G2E2
G2 | F2D2F2 | E2z2
GG | G2E2GG | G2E2
G2 | F2D2F2 | E2z2
GG | G2E2GG | G2E2
G2 | F2D2F2 | E2z2

@@@ Tune index: 7485
